DSAA
36 55
82.5 89.5
85.5 96.3
-0.047027587890625 0.00068664550781249
-0.0202178955 -0.0198211670 -0.0192565918 -0.0186004639 -0.0178527832 -0.0170593262 -0.0161590576 -0.0152587891 -0.0143432617 -0.0135192871 -0.0128173828 -0.0124053955 -0.0124969482 -0.0132904053 -0.0147247314 -0.0165557861 -0.0184783936 -0.0202636719 -0.0217590332 -0.0228576660 -0.0235900879 -0.0238800049 -0.0236206055 -0.0226898193 -0.0211639404 -0.0192871094 -0.0173034668 -0.0153656006 -0.0134887695 -0.0117645264 -0.0102233887 -0.0087738037 -0.0075073242 -0.0063781738 -0.0053253174 -0.0043945313
-0.0192565918 -0.0188598633 -0.0184020996 -0.0177612305 -0.0170593262 -0.0163116455 -0.0155181885 -0.0147705078 -0.0141143799 -0.0136108398 -0.0133514404 -0.0134277344 -0.0139465332 -0.0149688721 -0.0164337158 -0.0181884766 -0.0200347900 -0.0217437744 -0.0230865479 -0.0240020752 -0.0244750977 -0.0244750977 -0.0239562988 -0.0227966309 -0.0210723877 -0.0190582275 -0.0170440674 -0.0149383545 -0.0130004883 -0.0112457275 -0.0096893311 -0.0082550049 -0.0070495605 -0.0060119629 -0.0048522949 -0.0039062500
-0.0184783936 -0.0180206299 -0.0175323486 -0.0169372559 -0.0163421631 -0.0156555176 -0.0149993896 -0.0144195557 -0.0139770508 -0.0137634277 -0.0138397217 -0.0142822266 -0.0151977539 -0.0164794922 -0.0180358887 -0.0198516846 -0.0217285156 -0.0234527588 -0.0246734619 -0.0253295898 -0.0254821777 -0.0252227783 -0.0244903564 -0.0230560303 -0.0210113525 -0.0187683105 -0.0165252686 -0.0143432617 -0.0123443604 -0.0105743408 -0.0090332031 -0.0076751709 -0.0064697266 -0.0055084229 -0.0045318604 -0.0034179687
-0.0180206299 -0.0175781250 -0.0170440674 -0.0164184570 -0.0157470703 -0.0151214600 -0.0145568848 -0.0141296387 -0.0138397217 -0.0138702393 -0.0142211914 -0.0149688721 -0.0161590576 -0.0176849365 -0.0194854736 -0.0214843750 -0.0234680176 -0.0252075195 -0.0263366699 -0.0267639160 -0.0266418457 -0.0260162354 -0.0249328613 -0.0231781006 -0.0208587646 -0.0183715820 -0.0159301758 -0.0136413574 -0.0115203857 -0.0097045898 -0.0081939697 -0.0069885254 -0.0058898926 -0.0050201416 -0.0041198730 -0.0032958984
-0.0175170898 -0.0170745850 -0.0165405273 -0.0159149170 -0.0152893066 -0.0146789551 -0.0141601563 -0.0138397217 -0.0136871338 -0.0139007568 -0.0144653320 -0.0154113770 -0.0167694092 -0.0185852051 -0.0207366943 -0.0230712891 -0.0252990723 -0.0270996094 -0.0281677246 -0.0284271240 -0.0279541016 -0.0268707275 -0.0252685547 -0.0231628418 -0.0206298828 -0.0179138184 -0.0152435303 -0.0127563477 -0.0105743408 -0.0087890625 -0.0074310303 -0.0063018799 -0.0052947998 -0.0045623779 -0.0037231445 -0.0029602051
-0.0170898438 -0.0165405273 -0.0160369873 -0.0155487061 -0.0149536133 -0.0143737793 -0.0138549805 -0.0135498047 -0.0135192871 -0.0139007568 -0.0146026611 -0.0156555176 -0.0171813965 -0.0192718506 -0.0218811035 -0.0246734619 -0.0273132324 -0.0293273926 -0.0303802490 -0.0303497314 -0.0294494629 -0.0278930664 -0.0258178711 -0.0233306885 -0.0205230713 -0.0175170898 -0.0144805908 -0.0117187500 -0.0094451904 -0.0078430176 -0.0066223145 -0.0056762695 -0.0048065186 -0.0041503906 -0.0034179688 -0.0026550293
-0.0167999268 -0.0162811279 -0.0158081055 -0.0153198242 -0.0147552490 -0.0141906738 -0.0136413574 -0.0133056641 -0.0133972168 -0.0139617920 -0.0148010254 -0.0158843994 -0.0173797607 -0.0197448730 -0.0229034424 -0.0263061523 -0.0294952393 -0.0319976807 -0.0330505371 -0.0325927734 -0.0311737061 -0.0290985107 -0.0265655518 -0.0237274170 -0.0206451416 -0.0173187256 -0.0138244629 -0.0105895996 -0.0082550049 -0.0068969727 -0.0059509277 -0.0051727295 -0.0044403076 -0.0038299561 -0.0031433105 -0.0023498535
-0.0164794922 -0.0160064697 -0.0157165527 -0.0152893066 -0.0147857666 -0.0142517090 -0.0136871338 -0.0131988525 -0.0133819580 -0.0142974854 -0.0152893066 -0.0163116455 -0.0175018311 -0.0200653076 -0.0240020752 -0.0279541016 -0.0317230225 -0.0350189209 -0.0361022949 -0.0348663330 -0.0329742432 -0.0305328369 -0.0275573730 -0.0244445801 -0.0212402344 -0.0176086426 -0.0136108398 -0.0095367432 -0.0070648193 -0.0062561035 -0.0055541992 -0.0049591064 -0.0042724609 -0.0036163330 -0.0029602051 -0.0022888184
-0.0161895752 -0.0159301758 -0.0156860352 -0.0154113770 -0.0149230957 -0.0145416260 -0.0141906738 -0.0138397217 -0.0141754150 -0.0152282715 -0.0163574219 -0.0175018311 -0.0187988281 -0.0214691162 -0.0255126953 -0.0295715332 -0.0334014893 -0.0367736816 -0.0378723145 -0.0366363525 -0.0347137451 -0.0322265625 -0.0291442871 -0.0258789063 -0.0224761963 -0.0186309814 -0.0144500732 -0.0101776123 -0.0075836182 -0.0067138672 -0.0059814453 -0.0051879883 -0.0043487549 -0.0036163330 -0.0028991699 -0.0022125244
-0.0164031982 -0.0160827637 -0.0158538818 -0.0156250000 -0.0154266357 -0.0152587891 -0.0151824951 -0.0152587891 -0.0157623291 -0.0167236328 -0.0179443359 -0.0193786621 -0.0212402344 -0.0239410400 -0.0274505615 -0.0311584473 -0.0345916748 -0.0372314453 -0.0383300781 -0.0378570557 -0.0363616943 -0.0341491699 -0.0313262939 -0.0280456543 -0.0243835449 -0.0203704834 -0.0162506104 -0.0124206543 -0.0096435547 -0.0079193115 -0.0067138672 -0.0055694580 -0.0046386719 -0.0038299561 -0.0030212402 -0.0022888184
-0.0163116455 -0.0162658691 -0.0163421631 -0.0160980225 -0.0160827637 -0.0161285400 -0.0163574219 -0.0167541504 -0.0174560547 -0.0185089111 -0.0198516846 -0.0214843750 -0.0235748291 -0.0262451172 -0.0294189453 -0.0327301025 -0.0357360840 -0.0380096436 -0.0391235352 -0.0390625000 -0.0380096436 -0.0362091064 -0.0336914062 -0.0304412842 -0.0265960693 -0.0224609375 -0.0183410645 -0.0146179199 -0.0116271973 -0.0093841553 -0.0077209473 -0.0062408447 -0.0051422119 -0.0041198730 -0.0032348633 -0.0022430420
-0.0164031982 -0.0163879395 -0.0165405273 -0.0166015625 -0.0167999268 -0.0171051025 -0.0175933838 -0.0182495117 -0.0191497803 -0.0203552246 -0.0218048096 -0.0235443115 -0.0256500244 -0.0282745361 -0.0312957764 -0.0343627930 -0.0371093750 -0.0391693115 -0.0402832031 -0.0403747559 -0.0396575928 -0.0382843018 -0.0361938477 -0.0330047607 -0.0289001465 -0.0245056152 -0.0202789307 -0.0164642334 -0.0132751465 -0.0107269287 -0.0086212158 -0.0070037842 -0.0056610107 -0.0044860840 -0.0033416748 -0.0023498535
-0.0164337158 -0.0166473389 -0.0167694092 -0.0169982910 -0.0175170898 -0.0179901123 -0.0187072754 -0.0196228027 -0.0207672119 -0.0221405029 -0.0237274170 -0.0255279541 -0.0275268555 -0.0301055908 -0.0331420898 -0.0360412598 -0.0386047363 -0.0406036377 -0.0416412354 -0.0417022705 -0.0411529541 -0.0401306152 -0.0386657715 -0.0355072021 -0.0307922363 -0.0261230469 -0.0217590332 -0.0178680420 -0.0144805908 -0.0116577148 -0.0093688965 -0.0076599121 -0.0060729980 -0.0046997070 -0.0035095215 -0.0025482178
-0.0163879395 -0.0168304443 -0.0171203613 -0.0174560547 -0.0180969238 -0.0188751221 -0.0198211670 -0.0209808350 -0.0223388672 -0.0238647461 -0.0256195068 -0.0275115967 -0.0295715332 -0.0321044922 -0.0350189209 -0.0377655029 -0.0401458740 -0.0419616699 -0.0428619385 -0.0428161621 -0.0421905518 -0.0411224365 -0.0396423340 -0.0364685059 -0.0317535400 -0.0270538330 -0.0226440430 -0.0186767578 -0.0153350830 -0.0123291016 -0.0099182129 -0.0079498291 -0.0062713623 -0.0050354004 -0.0037231445 -0.0025939941
-0.0164031982 -0.0169067383 -0.0173339844 -0.0179595947 -0.0186462402 -0.0195922852 -0.0207672119 -0.0221099854 -0.0236663818 -0.0254211426 -0.0273437500 -0.0294799805 -0.0317840576 -0.0343170166 -0.0369720459 -0.0394897461 -0.0416259766 -0.0431518555 -0.0438232422 -0.0436401367 -0.0427551270 -0.0412750244 -0.0391235352 -0.0358734131 -0.0316925049 -0.0272216797 -0.0229187012 -0.0189819336 -0.0155792236 -0.0126495361 -0.0102233887 -0.0082244873 -0.0065460205 -0.0051574707 -0.0037841797 -0.0027313232
-0.0163421631 -0.0170593262 -0.0175170898 -0.0180511475 -0.0190734863 -0.0201416016 -0.0214996338 -0.0230255127 -0.0247955322 -0.0267333984 -0.0288848877 -0.0312347412 -0.0337066650 -0.0362396240 -0.0387573242 -0.0410766602 -0.0430755615 -0.0444183350 -0.0448303223 -0.0442962646 -0.0429840088 -0.0410308838 -0.0384216309 -0.0350799561 -0.0311126709 -0.0268554687 -0.0226593018 -0.0188140869 -0.0154266357 -0.0126190186 -0.0102691650 -0.0083007812 -0.0066375732 -0.0051574707 -0.0038909912 -0.0028228760
-0.0164031982 -0.0169067383 -0.0175170898 -0.0181274414 -0.0191650391 -0.0204925537 -0.0219268799 -0.0236663818 -0.0256042480 -0.0276947021 -0.0300292969 -0.0326080322 -0.0352935791 -0.0378570557 -0.0402069092 -0.0424194336 -0.0443725586 -0.0456848145 -0.0458374023 -0.0447692871 -0.0429382324 -0.0405578613 -0.0376892090 -0.0342254639 -0.0302734375 -0.0261077881 -0.0219573975 -0.0181274414 -0.0148620605 -0.0122680664 -0.0100860596 -0.0082397461 -0.0065917969 -0.0051574707 -0.0039367676 -0.0028839111
-0.0158843994 -0.0165100098 -0.0172882080 -0.0180053711 -0.0189666748 -0.0203704834 -0.0220947266 -0.0240325928 -0.0260620117 -0.0282287598 -0.0306854248 -0.0334625244 -0.0364379883 -0.0390014648 -0.0411071777 -0.0431976318 -0.0451965332 -0.0468750000 -0.0467987061 -0.0449066162 -0.0425415039 -0.0398254395 -0.0368041992 -0.0332489014 -0.0292510986 -0.0251312256 -0.0210418701 -0.0171051025 -0.0139923096 -0.0117340088 -0.0097503662 -0.0080261230 -0.0065002441 -0.0051116943 -0.0038604736 -0.0028228760
-0.0154266357 -0.0159912109 -0.0167846680 -0.0176696777 -0.0188140869 -0.0202026367 -0.0219268799 -0.0238800049 -0.0259704590 -0.0281829834 -0.0307159424 -0.0335235596 -0.0365295410 -0.0391082764 -0.0411834717 -0.0432128906 -0.0451049805 -0.0466308594 -0.0463409424 -0.0442199707 -0.0415954590 -0.0386657715 -0.0355072021 -0.0319213867 -0.0280151367 -0.0240631104 -0.0201721191 -0.0164184570 -0.0134582520 -0.0113372803 -0.0094604492 -0.0077819824 -0.0063934326 -0.0049438477 -0.0037841797 -0.0030517578
-0.0148468018 -0.0155029297 -0.0161895752 -0.0170898437 -0.0182342529 -0.0196228027 -0.0212554932 -0.0231628418 -0.0252685547 -0.0275726318 -0.0301055908 -0.0328369141 -0.0356292725 -0.0381774902 -0.0404205322 -0.0424194336 -0.0440673828 -0.0449829102 -0.0445709229 -0.0427703857 -0.0401611328 -0.0370941162 -0.0337524414 -0.0302124023 -0.0265655518 -0.0229339600 -0.0193939209 -0.0161132812 -0.0133361816 -0.0110931396 -0.0092163086 -0.0076446533 -0.0062103271 -0.0048522949 -0.0037231445 -0.0030212402
-0.0141601562 -0.0147705078 -0.0154418945 -0.0163269043 -0.0174102783 -0.0187377930 -0.0203094482 -0.0221405029 -0.0242004395 -0.0264892578 -0.0289764404 -0.0316162109 -0.0342864990 -0.0368347168 -0.0391387939 -0.0411376953 -0.0426635742 -0.0433807373 -0.0428619385 -0.0411224365 -0.0384674072 -0.0352630615 -0.0318298340 -0.0283813477 -0.0250244141 -0.0217742920 -0.0186157227 -0.0156707764 -0.0130462646 -0.0108337402 -0.0089874268 -0.0074005127 -0.0060119629 -0.0047302246 -0.0038299561 -0.0028381348
-0.0132904053 -0.0138549805 -0.0145874023 -0.0153808594 -0.0163879395 -0.0175933838 -0.0190582275 -0.0207977295 -0.0227966309 -0.0250244141 -0.0274810791 -0.0300598145 -0.0326843262 -0.0352020264 -0.0375213623 -0.0395660400 -0.0411682129 -0.0419921875 -0.0414733887 -0.0395965576 -0.0368041992 -0.0334167480 -0.0298004150 -0.0264587402 -0.0234985352 -0.0206298828 -0.0178070068 -0.0151214600 -0.0126342773 -0.0105133057 -0.0086822510 -0.0071258545 -0.0058593750 -0.0045623779 -0.0036315918 -0.0026855469
-0.0123748779 -0.0128173828 -0.0134887695 -0.0141906738 -0.0151672363 -0.0162658691 -0.0176086426 -0.0192108154 -0.0211181641 -0.0232849121 -0.0256652832 -0.0281982422 -0.0308074951 -0.0333251953 -0.0356445312 -0.0377807617 -0.0395812988 -0.0408477783 -0.0404205322 -0.0382080078 -0.0352935791 -0.0317840576 -0.0278167725 -0.0245971680 -0.0222473145 -0.0197143555 -0.0170898437 -0.0145263672 -0.0121154785 -0.0100097656 -0.0082244873 -0.0068054199 -0.0055389404 -0.0044403076 -0.0034790039 -0.0026550293
-0.0114593506 -0.0118560791 -0.0123748779 -0.0129852295 -0.0138092041 -0.0147705078 -0.0159606934 -0.0174255371 -0.0192260742 -0.0213165283 -0.0236663818 -0.0261535645 -0.0287322998 -0.0312347412 -0.0335845947 -0.0357055664 -0.0375671387 -0.0389404297 -0.0386810303 -0.0367279053 -0.0341033936 -0.0308685303 -0.0271148682 -0.0240325928 -0.0217132568 -0.0191650391 -0.0165100098 -0.0139312744 -0.0115661621 -0.0095520020 -0.0078125000 -0.0063781738 -0.0051727295 -0.0041809082 -0.0033111572 -0.0025634766
-0.0105438232 -0.0108795166 -0.0113372803 -0.0118103027 -0.0124359131 -0.0131988525 -0.0141906738 -0.0154876709 -0.0171813965 -0.0192260742 -0.0215301514 -0.0239868164 -0.0265197754 -0.0290069580 -0.0313720703 -0.0335083008 -0.0352325439 -0.0363159180 -0.0363159180 -0.0351867676 -0.0332489014 -0.0307006836 -0.0277404785 -0.0247955322 -0.0219726563 -0.0190582275 -0.0161285400 -0.0133819580 -0.0109405518 -0.0089263916 -0.0072937012 -0.0059814453 -0.0049133301 -0.0039825439 -0.0031890869 -0.0025482178
-0.0096282959 -0.0099792480 -0.0102996826 -0.0106658936 -0.0111236572 -0.0116577148 -0.0123901367 -0.0134429932 -0.0150299072 -0.0170898437 -0.0194396973 -0.0218811035 -0.0243682861 -0.0268707275 -0.0292816162 -0.0314025879 -0.0330352783 -0.0340423584 -0.0343475342 -0.0339202881 -0.0328063965 -0.0310516357 -0.0287322998 -0.0258941650 -0.0226745605 -0.0192413330 -0.0158538818 -0.0127563477 -0.0101928711 -0.0082550049 -0.0067901611 -0.0056457520 -0.0046539307 -0.0038299561 -0.0031280518 -0.0025482178
-0.0088958740 -0.0091552734 -0.0094299316 -0.0096588135 -0.0099487305 -0.0102691650 -0.0106658936 -0.0113983154 -0.0128936768 -0.0151367187 -0.0176086426 -0.0200347900 -0.0224151611 -0.0249328613 -0.0275115967 -0.0297088623 -0.0313110352 -0.0322875977 -0.0328826904 -0.0331115723 -0.0327606201 -0.0317535400 -0.0300445557 -0.0272827148 -0.0236053467 -0.0195922852 -0.0156097412 -0.0120086670 -0.0093078613 -0.0075836182 -0.0063476562 -0.0053405762 -0.0044708252 -0.0037536621 -0.0031127930 -0.0025787354
-0.0081329346 -0.0083465576 -0.0086517334 -0.0088958740 -0.0090789795 -0.0092468262 -0.0093536377 -0.0094909668 -0.0109558105 -0.0137023926 -0.0163726807 -0.0187683105 -0.0208892822 -0.0234680176 -0.0264282227 -0.0287933350 -0.0303649902 -0.0311126709 -0.0319366455 -0.0328521729 -0.0330657959 -0.0326690674 -0.0317077637 -0.0289916992 -0.0245971680 -0.0200500488 -0.0154876709 -0.0111389160 -0.0083465576 -0.0071258545 -0.0061492920 -0.0052490234 -0.0044860840 -0.0037841797 -0.0032501221 -0.0027465820
-0.0075073242 -0.0078430176 -0.0082550049 -0.0084228516 -0.0086517334 -0.0088348389 -0.0089721680 -0.0091094971 -0.0105895996 -0.0133666992 -0.0160675049 -0.0185089111 -0.0206909180 -0.0233459473 -0.0263977051 -0.0288848877 -0.0305786133 -0.0314636230 -0.0323944092 -0.0334014893 -0.0336761475 -0.0333251953 -0.0323791504 -0.0296173096 -0.0251770020 -0.0205383301 -0.0159149170 -0.0114746094 -0.0086364746 -0.0074005127 -0.0063934326 -0.0055084229 -0.0047912598 -0.0041351318 -0.0035095215 -0.0030212402
-0.0071716309 -0.0075073242 -0.0079193115 -0.0083160400 -0.0086059570 -0.0089874268 -0.0094604492 -0.0102233887 -0.0117797852 -0.0140838623 -0.0166473389 -0.0192108154 -0.0217742920 -0.0245513916 -0.0274353027 -0.0299987793 -0.0319824219 -0.0333404541 -0.0342254639 -0.0347137451 -0.0345611572 -0.0337066650 -0.0320434570 -0.0292053223 -0.0253448486 -0.0210571289 -0.0167999268 -0.0129547119 -0.0101013184 -0.0082550049 -0.0069427490 -0.0059509277 -0.0051116943 -0.0043945313 -0.0038146973 -0.0033264160
-0.0065765381 -0.0072479248 -0.0077972412 -0.0083618164 -0.0089416504 -0.0094604492 -0.0103149414 -0.0114898682 -0.0131683350 -0.0153350830 -0.0178222656 -0.0204772949 -0.0232391357 -0.0261383057 -0.0290527344 -0.0317840576 -0.0340881348 -0.0357360840 -0.0365600586 -0.0365295410 -0.0357208252 -0.0342254639 -0.0320129395 -0.0290374756 -0.0254669189 -0.0215911865 -0.0177459717 -0.0142517090 -0.0114135742 -0.0092773438 -0.0077209473 -0.0065002441 -0.0055236816 -0.0047454834 -0.0041046143 -0.0035552979
-0.0062866211 -0.0069732666 -0.0078125000 -0.0085601807 -0.0093078613 -0.0102539063 -0.0113525391 -0.0127716064 -0.0146026611 -0.0167694092 -0.0192260742 -0.0219268799 -0.0248107910 -0.0278320312 -0.0308990479 -0.0338745117 -0.0365600586 -0.0385742188 -0.0392761230 -0.0386047363 -0.0370941162 -0.0349578857 -0.0322723389 -0.0291595459 -0.0257415771 -0.0221405029 -0.0185699463 -0.0152893066 -0.0124511719 -0.0102081299 -0.0084381104 -0.0070648193 -0.0059814453 -0.0051422119 -0.0044097900 -0.0038146973
-0.0060729980 -0.0069122314 -0.0078125000 -0.0086822510 -0.0098571777 -0.0110626221 -0.0124359131 -0.0140075684 -0.0159606934 -0.0181579590 -0.0206451416 -0.0233917236 -0.0263519287 -0.0294647217 -0.0326690674 -0.0358581543 -0.0389404297 -0.0416412354 -0.0422363281 -0.0406646729 -0.0384979248 -0.0358428955 -0.0327148437 -0.0294494629 -0.0261383057 -0.0226745605 -0.0192413330 -0.0160522461 -0.0132598877 -0.0109252930 -0.0090637207 -0.0075836182 -0.0063781738 -0.0054626465 -0.0046844482 -0.0041198730
-0.0057373047 -0.0067443848 -0.0078430176 -0.0090484619 -0.0103759766 -0.0118103027 -0.0133972168 -0.0152130127 -0.0171966553 -0.0194549561 -0.0219573975 -0.0246887207 -0.0276641846 -0.0308380127 -0.0341186523 -0.0374145508 -0.0405731201 -0.0433044434 -0.0438385010 -0.0420989990 -0.0397033691 -0.0368194580 -0.0334930420 -0.0300903320 -0.0267181396 -0.0232238770 -0.0197906494 -0.0165863037 -0.0137939453 -0.0113983154 -0.0095062256 -0.0080261230 -0.0068054199 -0.0058746338 -0.0051422119 -0.0045928955
-0.0055999756 -0.0067596436 -0.0081329346 -0.0094757080 -0.0109100342 -0.0125427246 -0.0143127441 -0.0162658691 -0.0183410645 -0.0206146240 -0.0230712891 -0.0257415771 -0.0286865234 -0.0318603516 -0.0351867676 -0.0384826660 -0.0414276123 -0.0435333252 -0.0440368652 -0.0428924561 -0.0407104492 -0.0378570557 -0.0345611572 -0.0310516357 -0.0274353027 -0.0237426758 -0.0201721191 -0.0168609619 -0.0140686035 -0.0116729736 -0.0097961426 -0.0083007812 -0.0071258545 -0.0061950684 -0.0054168701 -0.0048522949
-0.0054931641 -0.0069122314 -0.0082550049 -0.0097351074 -0.0113525391 -0.0131683350 -0.0151214600 -0.0171966553 -0.0193634033 -0.0216064453 -0.0239715576 -0.0265197754 -0.0293579102 -0.0325164795 -0.0359039307 -0.0392303467 -0.0420989990 -0.0440216064 -0.0445251465 -0.0436096191 -0.0415954590 -0.0388488770 -0.0355834961 -0.0319671631 -0.0281372070 -0.0242156982 -0.0204010010 -0.0169067383 -0.0140228271 -0.0117187500 -0.0098876953 -0.0084686279 -0.0073242187 -0.0064239502 -0.0057067871 -0.0051269531
-0.0054931641 -0.0068359375 -0.0083160400 -0.0099334717 -0.0117034912 -0.0136718750 -0.0157928467 -0.0180206299 -0.0202484131 -0.0224456787 -0.0246887207 -0.0270538330 -0.0296783447 -0.0328369141 -0.0364074707 -0.0398864746 -0.0428466797 -0.0448608398 -0.0453948975 -0.0444488525 -0.0424652100 -0.0397796631 -0.0365753174 -0.0328826904 -0.0288085938 -0.0245819092 -0.0204467773 -0.0166625977 -0.0137023926 -0.0115814209 -0.0099487305 -0.0085754395 -0.0074920654 -0.0066070557 -0.0059051514 -0.0053863525
-0.0051727295 -0.0065765381 -0.0082702637 -0.0099639893 -0.0118560791 -0.0139617920 -0.0162658691 -0.0187377930 -0.0210418701 -0.0231323242 -0.0252990723 -0.0274810791 -0.0297088623 -0.0328521729 -0.0368347168 -0.0405120850 -0.0436553955 -0.0460205078 -0.0465698242 -0.0452880859 -0.0432128906 -0.0405731201 -0.0374755859 -0.0337219238 -0.0293884277 -0.0249328613 -0.0204925537 -0.0162200928 -0.0131835938 -0.0114288330 -0.0099639893 -0.0087280273 -0.0076293945 -0.0067749023 -0.0060424805 -0.0055236816
-0.0048370361 -0.0063171387 -0.0080718994 -0.0098724365 -0.0118560791 -0.0140075684 -0.0164031982 -0.0189514160 -0.0213623047 -0.0235595703 -0.0258331299 -0.0281219482 -0.0304107666 -0.0335845947 -0.0375213623 -0.0411376953 -0.0442199707 -0.0465240479 -0.0470275879 -0.0457458496 -0.0436859131 -0.0410614014 -0.0379791260 -0.0341949463 -0.0298309326 -0.0253295898 -0.0208129883 -0.0164794922 -0.0134277344 -0.0116271973 -0.0101470947 -0.0088806152 -0.0078277588 -0.0069427490 -0.0061340332 -0.0055847168
-0.0046691895 -0.0061492920 -0.0077972412 -0.0096130371 -0.0115966797 -0.0137939453 -0.0161437988 -0.0186920166 -0.0212097168 -0.0237274170 -0.0263061523 -0.0289611816 -0.0317840576 -0.0349578857 -0.0384216309 -0.0417175293 -0.0444793701 -0.0463256836 -0.0467681885 -0.0457916260 -0.0438385010 -0.0412139893 -0.0380249023 -0.0342712402 -0.0300750732 -0.0257110596 -0.0214080811 -0.0174865723 -0.0144042969 -0.0122070313 -0.0104522705 -0.0090637207 -0.0079650879 -0.0070343018 -0.0063476563 -0.0058441162
-0.0041961670 -0.0057373047 -0.0073699951 -0.0091552734 -0.0110626221 -0.0132446289 -0.0156707764 -0.0181884766 -0.0208587646 -0.0236053467 -0.0265350342 -0.0296173096 -0.0328063965 -0.0360260010 -0.0391998291 -0.0421447754 -0.0446472168 -0.0462951660 -0.0466308594 -0.0456695557 -0.0437316895 -0.0411224365 -0.0379486084 -0.0342712402 -0.0301971436 -0.0259857178 -0.0218963623 -0.0181579590 -0.0151062012 -0.0126800537 -0.0108184814 -0.0092468262 -0.0080566406 -0.0071105957 -0.0064239502 -0.0058593750
-0.0037078857 -0.0051727295 -0.0067749023 -0.0084686279 -0.0104064941 -0.0125122070 -0.0148925781 -0.0174560547 -0.0201568604 -0.0231628418 -0.0263977051 -0.0298767090 -0.0334320068 -0.0366668701 -0.0395050049 -0.0421905518 -0.0446166992 -0.0463562012 -0.0466308594 -0.0454406738 -0.0433807373 -0.0407867432 -0.0377502441 -0.0341491699 -0.0301361084 -0.0260162354 -0.0220489502 -0.0184478760 -0.0154418945 -0.0129394531 -0.0109558105 -0.0094146729 -0.0080718994 -0.0070953369 -0.0063018799 -0.0058288574
-0.0031433105 -0.0045013428 -0.0060272217 -0.0076446533 -0.0095367432 -0.0116424561 -0.0138854980 -0.0164031982 -0.0191345215 -0.0222320557 -0.0256652832 -0.0294647217 -0.0335235596 -0.0367431641 -0.0390777588 -0.0415039062 -0.0439910889 -0.0462646484 -0.0465393066 -0.0447387695 -0.0425262451 -0.0400543213 -0.0372924805 -0.0338439941 -0.0297851563 -0.0257110596 -0.0218353271 -0.0183258057 -0.0153503418 -0.0127868652 -0.0108642578 -0.0093231201 -0.0080566406 -0.0069427490 -0.0061798096 -0.0056762695
-0.0026397705 -0.0039062500 -0.0055236816 -0.0069732666 -0.0087127686 -0.0105743408 -0.0126037598 -0.0150299072 -0.0177154541 -0.0207977295 -0.0242156982 -0.0279998779 -0.0320434570 -0.0351867676 -0.0373992920 -0.0396728516 -0.0420532227 -0.0442810059 -0.0445861816 -0.0429382324 -0.0409240723 -0.0386810303 -0.0361480713 -0.0328826904 -0.0289306641 -0.0249786377 -0.0211791992 -0.0177459717 -0.0148010254 -0.0123291016 -0.0103759766 -0.0089263916 -0.0076904297 -0.0067443848 -0.0060882568 -0.0056762695
-0.0020446777 -0.0034942627 -0.0046997070 -0.0060882568 -0.0075683594 -0.0092315674 -0.0111389160 -0.0133514404 -0.0158691406 -0.0188140869 -0.0220794678 -0.0255432129 -0.0290069580 -0.0320281982 -0.0345306396 -0.0367889404 -0.0388488770 -0.0404052734 -0.0408172607 -0.0400543213 -0.0386199951 -0.0367279053 -0.0343322754 -0.0312805176 -0.0276794434 -0.0238647461 -0.0201568604 -0.0167694092 -0.0139312744 -0.0116119385 -0.0098114014 -0.0084381104 -0.0074005127 -0.0066986084 -0.0058746338 -0.0054473877
-0.0011749268 -0.0027618408 -0.0038452148 -0.0050811768 -0.0063629150 -0.0078125000 -0.0094299316 -0.0113525391 -0.0136871338 -0.0164337158 -0.0194702148 -0.0226287842 -0.0257110596 -0.0285797119 -0.0311126709 -0.0332946777 -0.0350799561 -0.0363464355 -0.0369110107 -0.0367736816 -0.0359802246 -0.0345764160 -0.0325012207 -0.0296936035 -0.0262603760 -0.0225067139 -0.0187835693 -0.0154113770 -0.0126647949 -0.0105895996 -0.0090332031 -0.0078430176 -0.0069427490 -0.0063781738 -0.0057525635 -0.0052947998
-0.0011291504 -0.0020141602 -0.0031890869 -0.0040588379 -0.0051879883 -0.0063323975 -0.0076141357 -0.0091705322 -0.0112609863 -0.0138854980 -0.0167236328 -0.0195770264 -0.0223541260 -0.0250549316 -0.0275878906 -0.0297088623 -0.0313110352 -0.0324096680 -0.0331420898 -0.0335540771 -0.0333709717 -0.0324707031 -0.0308227539 -0.0282440186 -0.0248413086 -0.0210571289 -0.0172271729 -0.0137176514 -0.0110931396 -0.0093688965 -0.0081329346 -0.0072021484 -0.0064544678 -0.0060272217 -0.0055999756 -0.0050964355
-0.0005950928 -0.0013580322 -0.0023651123 -0.0032196045 -0.0040740967 -0.0049591064 -0.0059051514 -0.0069427490 -0.0087890625 -0.0114288330 -0.0141143799 -0.0166931152 -0.0191345215 -0.0217285156 -0.0243682861 -0.0265045166 -0.0279998779 -0.0287628174 -0.0296783447 -0.0307159424 -0.0310058594 -0.0305633545 -0.0294494629 -0.0270538330 -0.0235137939 -0.0196533203 -0.0156707764 -0.0118103027 -0.0093078613 -0.0082244873 -0.0073547363 -0.0066375732 -0.0060424805 -0.0056762695 -0.0053558350 -0.0049591064
-0.0000762939 -0.0007476807 -0.0015106201 -0.0022430420 -0.0029754639 -0.0037536621 -0.0045471191 -0.0054168701 -0.0070648193 -0.0094604492 -0.0118865967 -0.0142517090 -0.0165405273 -0.0190734863 -0.0217437744 -0.0239868164 -0.0256195068 -0.0265197754 -0.0275573730 -0.0287017822 -0.0290985107 -0.0287628174 -0.0277404785 -0.0254974365 -0.0221099854 -0.0184326172 -0.0146331787 -0.0109405518 -0.0085601807 -0.0075531006 -0.0067749023 -0.0062103271 -0.0058135986 -0.0053100586 -0.0050354004 -0.0048522949
0.0000915527 -0.0003356934 -0.0009460449 -0.0016784668 -0.0023193359 -0.0030059814 -0.0037536621 -0.0046997070 -0.0061645508 -0.0080566406 -0.0101318359 -0.0122985840 -0.0145874023 -0.0171356201 -0.0198059082 -0.0222625732 -0.0242614746 -0.0257263184 -0.0268249512 -0.0275726318 -0.0276794434 -0.0270843506 -0.0257873535 -0.0236053467 -0.0207061768 -0.0174407959 -0.0141296387 -0.0111236572 -0.0089111328 -0.0075683594 -0.0066528320 -0.0059814453 -0.0054779053 -0.0050964355 -0.0048522949 -0.0046539307
0.0004119873 -0.0000915527 -0.0006103516 -0.0012207031 -0.0017852783 -0.0023956299 -0.0031585693 -0.0041503906 -0.0054473877 -0.0070037842 -0.0087585449 -0.0106811523 -0.0128784180 -0.0154571533 -0.0183410645 -0.0211639404 -0.0236358643 -0.0255432129 -0.0266876221 -0.0270996094 -0.0267944336 -0.0258178711 -0.0242004395 -0.0220642090 -0.0194702148 -0.0166320801 -0.0138092041 -0.0112457275 -0.0091705322 -0.0077056885 -0.0066223145 -0.0058593750 -0.0053253174 -0.0049438477 -0.0046844482 -0.0045166016
0.0006103516 0.0001678467 -0.0003051758 -0.0009460449 -0.0014343262 -0.0020141602 -0.0027770996 -0.0037231445 -0.0048980713 -0.0062103271 -0.0076904297 -0.0093231201 -0.0112915039 -0.0139617920 -0.0172271729 -0.0205688477 -0.0235900879 -0.0259399414 -0.0270996094 -0.0270843506 -0.0262908936 -0.0248870850 -0.0230255127 -0.0208587646 -0.0184936523 -0.0159759521 -0.0135040283 -0.0111999512 -0.0092926025 -0.0077819824 -0.0066833496 -0.0058135986 -0.0052337646 -0.0048522949 -0.0045471191 -0.0044250488
0.0006866455 0.0002746582 -0.0001678467 -0.0006866455 -0.0011901855 -0.0018157959 -0.0025177002 -0.0034332275 -0.0045318604 -0.0057373047 -0.0070343018 -0.0083923340 -0.0098571777 -0.0126037598 -0.0165405273 -0.0203857422 -0.0238800049 -0.0268554688 -0.0280303955 -0.0273590088 -0.0260772705 -0.0243225098 -0.0221405029 -0.0198974609 -0.0177307129 -0.0154418945 -0.0131683350 -0.0110931396 -0.0093078613 -0.0077819824 -0.0066833496 -0.0058441162 -0.0051269531 -0.0047760010 -0.0045013428 -0.0043029785
0.0005645752 0.0003051758 -0.0001220703 -0.0008239746 -0.0013580322 -0.0018920898 -0.0025634766 -0.0033874512 -0.0044403076 -0.0056152344 -0.0068817139 -0.0082550049 -0.0097656250 -0.0125732422 -0.0166320801 -0.0205688477 -0.0241546631 -0.0271606445 -0.0282745361 -0.0274505615 -0.0260009766 -0.0240631104 -0.0217437744 -0.0194702148 -0.0173034668 -0.0150756836 -0.0128936768 -0.0108947754 -0.0090789795 -0.0076751709 -0.0065917969 -0.0058288574 -0.0051879883 -0.0047302246 -0.0043945313 -0.0042572021
0.0003967285 -0.0000152588 -0.0007019043 -0.0010986328 -0.0014343262 -0.0019531250 -0.0025787354 -0.0034179688 -0.0045166016 -0.0057830811 -0.0072326660 -0.0089111328 -0.0109863281 -0.0138397217 -0.0174102783 -0.0210723877 -0.0243682861 -0.0268402100 -0.0278472900 -0.0274200439 -0.0260467529 -0.0241088867 -0.0218505859 -0.0194854736 -0.0171508789 -0.0148315430 -0.0126190186 -0.0106201172 -0.0088806152 -0.0075378418 -0.0065155029 -0.0057678223 -0.0052032471 -0.0047302246 -0.0044097900 -0.0041961670